X:1
T:Title
%%score { ( 1 3 ) | ( 2 4 ) }
L:1/8
M:4/4
K:Ab
V:1 treble nm="Grand Piano"
V:3 treble 
V:2 bass 
V:4 bass 
V:1
 z4 z2[Q:1/4=100] [CA][DB] | [Ec]2 [CE]2 [EA]2 [EB][Ec] | [DB]2 [DF]2 [FB]2 [FA]2 | AGFE e2 d2 | %4
[M:3/4] c6 |[M:1/4] AB |[M:4/4] c2 E2 [CFA]2 [B,FB][Fc] | [Fd]2 [EF]2 [FB]2 [FA]2 | z4 c2 z2 | %9
[M:3/4] [CEA]6 |[M:1/4] (3[CA-][AB]c |[M:4/4] e6 z2 | e6 z2 | [EBd]2 [EGe][EBd] [EAc]2 [EBd][EAc] | %14
[M:3/4] z2 z2 B2[K:bass] |[M:1/4][K:treble] [EA][EB] |[M:4/4] [Ec]2 [B,E]2 [CFA]2 [B,FB][Fc] | %17
 [Fd]2 [EF]2 [FB]2 [FA]2 | z4 c2 z2 |[M:3/4] [CEA]6 |] %20
V:2
 z4 z2 [A,,A,][A,,A,] | [A,,A,]2 [A,,A,]2 [C,A,]2 [B,,G,][A,,A,] | %2
 [D,F,]2 [D,B,]2 [D,B,]2 [=D,B,]2 | [E,B,D][E,B,D][E,A,D][E,G,] [E,G,E]2 [G,B,E]2 |[M:3/4] [A,E]6 | %5
[M:1/4] [A,C][A,D] |[M:4/4] [A,E]2 [G,B,]2 F,E,D,[C,=A,] | [B,,B,]2 [C,=A,]2 [D,B,]2 [=D,B,]2 | %8
 [E,B,D][E,B,D][E,A,D][E,G,D] .[E,A,C]2 E,2 |[M:3/4] A,,6 |[M:1/4] (3A,-[A,D][K:treble][A,EA] | %11
[M:4/4] A6 z2 | A6[K:bass] z2 | G,2 E,G, A,2 G,A, |[M:3/4] B,2 [B,,A,]2 .[E,G,E]2 | %15
[M:1/4] [C,A,][E,G,] |[M:4/4] A,2 G,2 F,E,D,[C,=A,] | [B,,B,]2 [C,=A,]2 [D,B,]2 [=D,B,]2 | %18
 [E,B,D][E,B,D][E,A,D][E,G,D] .[E,A,C]2 E,2 |[M:3/4] A,,6 |] %20
V:3
 x8 | x8 | x8 | x8 |[M:3/4] x6 |[M:1/4] x2 |[M:4/4] x8 | x8 | AGFE z E [DEB]2 |[M:3/4] x6 | %10
[M:1/4] x2 |[M:4/4] z2 C>C C2 (3A-[AB]c | z2 C>C C2 [Ece][Ece] | x8 | %14
[M:3/4] [EGB]2 [=DB]2 z[K:bass] D, |[M:1/4][K:treble] x2 |[M:4/4] x8 | x8 | AGFE z E [DEB]2 | %19
[M:3/4] x6 |] %20
V:4
 x8 | x8 | x8 | x8 |[M:3/4] x6 |[M:1/4] x2 |[M:4/4] x8 | x8 | x8 |[M:3/4] x6 | %10
[M:1/4] x4/3[K:treble] x2/3 |[M:4/4] [A,C]2 A,>A, A,2 (3[A,-C][A,D][A,EA] | %12
 [A,C]2[K:bass] A,>A, A,2 A,A, | x8 |[M:3/4] x6 |[M:1/4] x2 |[M:4/4] x8 | x8 | x8 |[M:3/4] x6 |] %20

